static/dist/images/icons/text-document-inverted.svg

<?xml version="1.0" encoding="utf-8"?>
<!-- Generator: Adobe Illustrator 18.1.0, SVG Export Plug-In . SVG Version: 6.00 Build 0)  -->
<!DOCTYPE svg PUBLIC "-//W3C//DTD SVG 1.1//EN" "http://www.w3.org/Graphics/SVG/1.1/DTD/svg11.dtd">
<svg version="1.1" id="Text_document_inverted" xmlns="http://www.w3.org/2000/svg" xmlns:xlink="http://www.w3.org/1999/xlink"
	 x="0px" y="0px" viewBox="0 0 20 20" enable-background="new 0 0 20 20" xml:space="preserve">
<path fill-rule="evenodd" clip-rule="evenodd" d="M16,1H4C3.447,1,3,1.447,3,2v16c0,0.552,0.447,1,1,1h12c0.553,0,1-0.448,1-1V2
	C17,1.448,16.553,1,16,1z M13,15H7v-2h6V15z M13,11H7V9h6V11z M13,7H7V5h6V7z"/>
</svg>

<svg xmlns="http://www.w3.org/2000/svg" viewBox="0 0 20 20"><path fill-rule="evenodd" clip-rule="evenodd" d="M16 1H4a1 1 0 0 0-1 1v16a1 1 0 0 0 1 1h12a1 1 0 0 0 1-1V2a1 1 0 0 0-1-1zm-3 14H7v-2h6v2zm0-4H7V9h6v2zm0-4H7V5h6v2z"/></svg>
